X: 583
T: Ace And Deuce Of Pipering, The
R: hornpipe
M: 4/4
K: Gmajor
d>c|B2 cA B2 cA|BGcA B2 AG|d2 ec d2 ec|
d2 ec dcBA|e2 fd edcA|d2 ec dcBA|BGcA B2 AG|
FGAB cBcA|G2 g2 fdcA|FGAB cBcA|AGGG G2 FG|AGGG G2|
G>F|G2 =f2 e2 f2|G2 =fe fdcA|G2 g2 ^f2 g2|d2 gg gfdc|
A2 =f2 e2 f2|dcde =f3 g|aggg g>^fdc|BGcA B2 AG|
G2 g2 fdcA|FGAB cBcA|AGGG G2 FG|AGGG G2||

